book/images/probability-statistics/probability-cdf-fair-die.svg

<?xml version="1.0" encoding="UTF-8" standalone="no"?>
<svg
   width="600"
   height="400"
   version="1.1"
   id="svg58"
   sodipodi:docname="probability-cdf-fair-die.svg"
   inkscape:version="1.2.2 (b0a8486541, 2022-12-01)"
   xmlns:inkscape="http://www.inkscape.org/namespaces/inkscape"
   xmlns:sodipodi="http://sodipodi.sourceforge.net/DTD/sodipodi-0.dtd"
   xmlns="http://www.w3.org/2000/svg"
   xmlns:svg="http://www.w3.org/2000/svg">
  <defs
     id="defs62" />
  <sodipodi:namedview
     id="namedview60"
     pagecolor="#ffffff"
     bordercolor="#000000"
     borderopacity="0.25"
     inkscape:showpageshadow="2"
     inkscape:pageopacity="0.0"
     inkscape:pagecheckerboard="0"
     inkscape:deskcolor="#d1d1d1"
     showgrid="false"
     inkscape:zoom="2.1833333"
     inkscape:cx="300"
     inkscape:cy="200.38168"
     inkscape:window-width="3840"
     inkscape:window-height="2091"
     inkscape:window-x="0"
     inkscape:window-y="32"
     inkscape:window-maximized="1"
     inkscape:current-layer="g56" />
  <g
     transform="translate(100, 50)"
     id="g56">
    <text
       x="200.0"
       y="-20"
       font-family="Arial"
       font-size="18"
       font-weight="bold"
       text-anchor="middle"
       id="text2">Fair Die CDF: P(X ≤ x)</text>
    <!-- Axes -->
    <line
       x1="0"
       y1="250"
       x2="400"
       y2="250"
       stroke="#333"
       stroke-width="2"
       id="line4" />
    <line
       x1="0"
       y1="250"
       x2="0"
       y2="0"
       stroke="#333"
       stroke-width="2"
       id="line6" />
    <!-- Axis labels -->
    <text
       x="200.0"
       y="285"
       font-family="Arial"
       font-size="14"
       text-anchor="middle"
       id="text8">x</text>
    <text
       x="-40"
       y="125.0"
       font-family="Arial"
       font-size="14"
       text-anchor="middle"
       dominant-baseline="middle"
       transform="rotate(-90, -40, 125.0)"
       id="text10">F(x) = P(X ≤ x)</text>
    <!-- Y-axis labels and grid -->
    <line
       x1="0"
       y1="250.0"
       x2="400"
       y2="250.0"
       stroke="#ccc"
       stroke-width="1"
       stroke-dasharray="2,2"
       id="line12" />
    <text
       x="-25.310469"
       y="254.97316"
       font-family="Arial"
       font-size="11px"
       id="text14">0.00</text>
    <line
       x1="0"
       y1="200.0"
       x2="400"
       y2="200.0"
       stroke="#ccc"
       stroke-width="1"
       stroke-dasharray="2,2"
       id="line16" />
    <text
       x="-25.310469"
       y="204.97316"
       font-family="Arial"
       font-size="11px"
       id="text18">0.20</text>
    <line
       x1="0"
       y1="150.0"
       x2="400"
       y2="150.0"
       stroke="#ccc"
       stroke-width="1"
       stroke-dasharray="2,2"
       id="line20" />
    <text
       x="-25.310469"
       y="154.97316"
       font-family="Arial"
       font-size="11px"
       id="text22">0.40</text>
    <line
       x1="0"
       y1="100.0"
       x2="400"
       y2="100.0"
       stroke="#ccc"
       stroke-width="1"
       stroke-dasharray="2,2"
       id="line24" />
    <text
       x="-25.310469"
       y="104.97316"
       font-family="Arial"
       font-size="11px"
       id="text26">0.60</text>
    <line
       x1="0"
       y1="50.0"
       x2="400"
       y2="50.0"
       stroke="#ccc"
       stroke-width="1"
       stroke-dasharray="2,2"
       id="line28" />
    <text
       x="-25.310469"
       y="54.973164"
       font-family="Arial"
       font-size="11px"
       id="text30">0.80</text>
    <line
       x1="0"
       y1="0.0"
       x2="400"
       y2="0.0"
       stroke="#ccc"
       stroke-width="1"
       stroke-dasharray="2,2"
       id="line32" />
    <text
       x="-25.310469"
       y="4.9731631"
       font-family="Arial"
       font-size="11px"
       id="text34">1.00</text>
    <!-- Step function -->
    <path
       d="M 0.0 250.0 H 57.14285714285714 V 208.25 H 114.28571428571428 V 166.75 H 171.42857142857142 V 125.0 H 228.57142857142856 V 83.25 H 285.7142857142857 V 41.75 H 342.85714285714283 V 0.0 H 400.0 V 0.0"
       stroke="#2563eb"
       stroke-width="3"
       fill="none"
       id="path36" />
    <text
       x="0.0"
       y="270"
       font-family="Arial"
       font-size="11"
       text-anchor="middle"
       id="text38">0</text>
    <text
       x="57.14285714285714"
       y="270"
       font-family="Arial"
       font-size="11"
       text-anchor="middle"
       id="text40">1</text>
    <text
       x="114.28571428571428"
       y="270"
       font-family="Arial"
       font-size="11"
       text-anchor="middle"
       id="text42">2</text>
    <text
       x="171.42857142857142"
       y="270"
       font-family="Arial"
       font-size="11"
       text-anchor="middle"
       id="text44">3</text>
    <text
       x="228.57142857142856"
       y="270"
       font-family="Arial"
       font-size="11"
       text-anchor="middle"
       id="text46">4</text>
    <text
       x="285.7142857142857"
       y="270"
       font-family="Arial"
       font-size="11"
       text-anchor="middle"
       id="text48">5</text>
    <text
       x="342.85714285714283"
       y="270"
       font-family="Arial"
       font-size="11"
       text-anchor="middle"
       id="text50">6</text>
    <text
       x="400.0"
       y="270"
       font-family="Arial"
       font-size="11"
       text-anchor="middle"
       id="text52">7</text>
    <!-- Note -->
    <text
       x="200.0"
       y="305"
       font-family="Arial"
       font-size="12"
       fill="#666"
       text-anchor="middle"
       id="text54">Step function: F(0)=0, F(1)=1/6, F(2)=2/6, ..., F(6)=1, F(7)=1</text>
  </g>
</svg>

<?xml version='1.0' encoding='utf-8'?>
<svg xmlns="http://www.w3.org/2000/svg" xmlns:ns1="http://sodipodi.sourceforge.net/DTD/sodipodi-0.dtd" xmlns:ns2="http://www.inkscape.org/namespaces/inkscape" width="489.12183" height="380.62988" version="1.1" id="svg58" ns1:docname="probability-cdf-fair-die.svg" ns2:version="1.2.2 (b0a8486541, 2022-12-01)" viewBox="0 0 489.12 380.63">
  <defs id="defs62" />
  <ns1:namedview id="namedview60" pagecolor="#ffffff" bordercolor="#000000" borderopacity="0.25" ns2:showpageshadow="2" ns2:pageopacity="0.0" ns2:pagecheckerboard="0" ns2:deskcolor="#d1d1d1" showgrid="false" ns2:zoom="2.1833333" ns2:cx="300" ns2:cy="200.38168" ns2:window-width="3840" ns2:window-height="2091" ns2:window-x="0" ns2:window-y="32" ns2:window-maximized="1" ns2:current-layer="g56" fit-margin-top="20" fit-margin-left="20" fit-margin-right="20" fit-margin-bottom="20" />
  <g transform="translate(66.5625,53.104492)" id="g56">
    <text x="200" y="-20" font-family="Arial" font-size="18px" font-weight="bold" text-anchor="middle" id="text2">Fair Die CDF: P(X ≤ x)</text>
    
    <line x1="0" y1="250" x2="400" y2="250" stroke="#333333" stroke-width="2" id="line4" />
    <line x1="0" y1="250" x2="0" y2="0" stroke="#333333" stroke-width="2" id="line6" />
    
    <text x="200" y="285" font-family="Arial" font-size="14px" text-anchor="middle" id="text8">x</text>
    <text x="-40" y="125" font-family="Arial" font-size="14px" text-anchor="middle" dominant-baseline="middle" transform="rotate(-90,-40,125)" id="text10">F(x) = P(X ≤ x)</text>
    
    <line x1="0" y1="250" x2="400" y2="250" stroke="#cccccc" stroke-width="1" stroke-dasharray="2, 2" id="line12" />
    <text x="-25.310469" y="254.97316" font-family="Arial" font-size="11px" id="text14">0.00</text>
    <line x1="0" y1="200" x2="400" y2="200" stroke="#cccccc" stroke-width="1" stroke-dasharray="2, 2" id="line16" />
    <text x="-25.310469" y="204.97316" font-family="Arial" font-size="11px" id="text18">0.20</text>
    <line x1="0" y1="150" x2="400" y2="150" stroke="#cccccc" stroke-width="1" stroke-dasharray="2, 2" id="line20" />
    <text x="-25.310469" y="154.97316" font-family="Arial" font-size="11px" id="text22">0.40</text>
    <line x1="0" y1="100" x2="400" y2="100" stroke="#cccccc" stroke-width="1" stroke-dasharray="2, 2" id="line24" />
    <text x="-25.310469" y="104.97316" font-family="Arial" font-size="11px" id="text26">0.60</text>
    <line x1="0" y1="50" x2="400" y2="50" stroke="#cccccc" stroke-width="1" stroke-dasharray="2, 2" id="line28" />
    <text x="-25.310469" y="54.973164" font-family="Arial" font-size="11px" id="text30">0.80</text>
    <line x1="0" y1="0" x2="400" y2="0" stroke="#cccccc" stroke-width="1" stroke-dasharray="2, 2" id="line32" />
    <text x="-25.310469" y="4.9731631" font-family="Arial" font-size="11px" id="text34">1.00</text>
    
    <path d="m 0,250 h 57.142857 v -41.75 h 57.142853 v -41.5 h 57.14286 V 125 h 57.14286 V 83.25 h 57.14286 v -41.5 h 57.14285 V 0 H 400 v 0" stroke="#2563eb" stroke-width="3" fill="none" id="path36" />
    <text x="0" y="270" font-family="Arial" font-size="11px" text-anchor="middle" id="text38">0</text>
    <text x="57.142857" y="270" font-family="Arial" font-size="11px" text-anchor="middle" id="text40">1</text>
    <text x="114.28571" y="270" font-family="Arial" font-size="11px" text-anchor="middle" id="text42">2</text>
    <text x="171.42857" y="270" font-family="Arial" font-size="11px" text-anchor="middle" id="text44">3</text>
    <text x="228.57143" y="270" font-family="Arial" font-size="11px" text-anchor="middle" id="text46">4</text>
    <text x="285.71429" y="270" font-family="Arial" font-size="11px" text-anchor="middle" id="text48">5</text>
    <text x="342.85715" y="270" font-family="Arial" font-size="11px" text-anchor="middle" id="text50">6</text>
    <text x="400" y="270" font-family="Arial" font-size="11px" text-anchor="middle" id="text52">7</text>
    
    <text x="200" y="305" font-family="Arial" font-size="12px" fill="#666666" text-anchor="middle" id="text54">Step function: F(0)=0, F(1)=1/6, F(2)=2/6, ..., F(6)=1, F(7)=1</text>
  </g>
</svg>
